public/features/date.svg

<svg xmlns="http://www.w3.org/2000/svg" fill="none" width="800" height="800" viewBox="0 0 24 24" stroke-linejoin="round" stroke-width="2" xmlns:v="https://vecta.io/nano"><path d="M20 21H4a1 1 0 0 1-1-1V9h18v11a1 1 0 0 1-1 1zm1-16a1 1 0 0 0-1-1H4a1 1 0 0 0-1 1v4h18z" stroke="#000"/><path d="M16 3v3M8 3v3m4 9h.5a1.5 1.5 0 0 0 1.5-1.5h0a1.5 1.5 0 0 0-1.5-1.5H11m.95 6h.1" stroke="#2ca9bc" stroke-linecap="round"/></svg>

<?xml version="1.0" encoding="utf-8"?><!-- Uploaded to: SVG Repo, www.svgrepo.com, Generator: SVG Repo Mixer Tools -->
<svg fill="#000000" width="800px" height="800px" viewBox="0 0 24 24" id="date-question" data-name="Line Color" xmlns="http://www.w3.org/2000/svg" class="icon line-color"><path id="primary" d="M20,21H4a1,1,0,0,1-1-1V9H21V20A1,1,0,0,1,20,21ZM21,5a1,1,0,0,0-1-1H4A1,1,0,0,0,3,5V9H21Z" style="fill: none; stroke: rgb(0, 0, 0); stroke-linecap: round; stroke-linejoin: round; stroke-width: 2;"></path><path id="secondary" d="M16,3V6M8,3V6" style="fill: none; stroke: rgb(44, 169, 188); stroke-linecap: round; stroke-linejoin: round; stroke-width: 2;"></path><path id="secondary-2" data-name="secondary" d="M12,15h.5A1.5,1.5,0,0,0,14,13.5h0A1.5,1.5,0,0,0,12.5,12H11" style="fill: none; stroke: rgb(44, 169, 188); stroke-linecap: round; stroke-linejoin: round; stroke-width: 2;"></path><line id="secondary-upstroke" x1="11.95" y1="18" x2="12.05" y2="18" style="fill: none; stroke: rgb(44, 169, 188); stroke-linecap: round; stroke-linejoin: round; stroke-width: 2;"></line></svg>
